src/topics/icons/dreamfactory.svg

<svg height="237" preserveAspectRatio="xMidYMid" viewBox="0 0 256 237" width="256" xmlns="http://www.w3.org/2000/svg"><path d="m102.6018 165.6833c-24.75-32.484-10.02-97.952 52.815-93.183-74.779-86.207-171.265 63.165-52.815 93.183" fill="#b83c23"/><path d="m213.2773.1748 42.723 25.566v211.259l-2.427-.58-39.283-22.377-1.013-1.6z" fill="#f78d2a"/><path d="m256 237h-212.604l-43.396-24.557h213.277z" fill="#b83c23"/></svg>

<?xml version="1.0" encoding="UTF-8" standalone="no"?>
<svg width="256px" height="237px" viewBox="0 0 256 237" version="1.1" xmlns="http://www.w3.org/2000/svg" xmlns:xlink="http://www.w3.org/1999/xlink" preserveAspectRatio="xMidYMid">
	<g>
		<path d="M102.6018,165.6833 C77.8518,133.1993 92.5818,67.7313 155.4168,72.5003 C80.6378,-13.7067 -15.8482,135.6653 102.6018,165.6833" fill="#B83C23"></path>
		<path d="M213.2773,0.1748 L256.0003,25.7408 L256.0003,236.9998 L253.5733,236.4198 L214.2903,214.0428 L213.2773,212.4428 L213.2773,0.1748 Z" fill="#F78D2A"></path>
		<path d="M256,237 L43.396,237 L0,212.443 L213.277,212.443 L256,237 Z" fill="#B83C23"></path>
	</g>
</svg>
